src/Pure/16/symbolic/actions/object-ungroup-symbolic.svg

<svg width="16" height="16" version="1.1" xmlns="http://www.w3.org/2000/svg">
 <g fill="#363636">
  <path d="m3 4v1h3.1328a4 4 0 0 1 0.4082-1z" opacity=".25" style="paint-order:normal"/>
  <rect x="3" y="14" width="7" height="1" opacity=".25" style="paint-order:normal"/>
  <rect transform="rotate(90)" x="3" y="-15" width="6" height="1" opacity=".25" style="paint-order:normal"/>
  <path d="M 0.5,3 C 0.223,3 0,3.223 0,3.5 v 2 C 0,5.777 0.223,6 0.5,6 h 2 C 2.777,6 3,5.777 3,5.5 v -2 C 3,3.223 2.777,3 2.5,3 Z m 0.75,1 h 0.5 C 1.8885,4 2,4.1115 2,4.25 v 0.5 C 2,4.8885 1.8885,5 1.75,5 H 1.25 C 1.1115,5 1,4.8885 1,4.75 V 4.25 C 1,4.1115 1.1115,4 1.25,4 Z" opacity=".8" style="paint-order:normal"/>
  <path d="m13.5 0c-0.277 0-0.5 0.223-0.5 0.5v2c0 0.277 0.223 0.5 0.5 0.5h2c0.277 0 0.5-0.223 0.5-0.5v-2c0-0.277-0.223-0.5-0.5-0.5zm0.75 1h0.5c0.1385 0 0.25 0.1115 0.25 0.25v0.5c0 0.1385-0.1115 0.25-0.25 0.25h-0.5c-0.1385 0-0.25-0.1115-0.25-0.25v-0.5c0-0.1385 0.1115-0.25 0.25-0.25z" opacity=".8" style="paint-order:normal"/>
  <path d="m0.5 13c-0.277 0-0.5 0.223-0.5 0.5v2c0 0.277 0.223 0.5 0.5 0.5h2c0.277 0 0.5-0.223 0.5-0.5v-2c0-0.277-0.223-0.5-0.5-0.5zm0.75 1h0.5c0.1385 0 0.25 0.1115 0.25 0.25v0.5c0 0.1385-0.1115 0.25-0.25 0.25h-0.5c-0.1385 0-0.25-0.1115-0.25-0.25v-0.5c0-0.1385 0.1115-0.25 0.25-0.25z" opacity=".8" style="paint-order:normal"/>
  <path d="m10.5 13c-0.277 0-0.5 0.223-0.5 0.5v2c0 0.277 0.223 0.5 0.5 0.5h2c0.277 0 0.5-0.223 0.5-0.5v-2c0-0.277-0.223-0.5-0.5-0.5zm0.75 1h0.5c0.1385 0 0.25 0.1115 0.25 0.25v0.5c0 0.1385-0.1115 0.25-0.25 0.25h-0.5c-0.1385 0-0.25-0.1115-0.25-0.25v-0.5c0-0.1385 0.1115-0.25 0.25-0.25z" opacity=".8" style="paint-order:normal"/>
  <path d="m10.117 2.002a4 4 0 0 0-4.1172 3.998 4 4 0 0 0 0.013672 0.28711 4 4 0 0 1-0.013672-0.28711h-2.5c-0.277 0-0.5 0.223-0.5 0.5v6c0 0.277 0.223 0.5 0.5 0.5h6c0.277 0 0.5-0.223 0.5-0.5v-2.5039a4 4 0 0 0 4-3.9961 4 4 0 0 0-3.8828-3.998zm-0.03125 1a3 2.9995 0 0 1 2.9141 2.998 3 2.9995 0 0 1-6 0 3 2.9995 0 0 1 3.0859-2.998zm-4.0449 3.543a4 4 0 0 0 0.01758 0.11523 4 4 0 0 1-0.01758-0.11523zm-1.791 0.45508h1.8809a4 4 0 0 0 2.8691 2.8691v1.8809c0 0.1385-0.1115 0.25-0.25 0.25h-4.5c-0.1385 0-0.25-0.1115-0.25-0.25v-4.5c0-0.1385 0.1115-0.25 0.25-0.25z" style="paint-order:normal"/>
  <path d="m13 6a3 2.9995 0 1 1-6 0 3 2.9995 0 1 1 6 0z" opacity=".25" style="paint-order:normal"/>
  <path d="m13.5 9c-0.277 0-0.5 0.223-0.5 0.5v2c0 0.277 0.223 0.5 0.5 0.5h2c0.277 0 0.5-0.223 0.5-0.5v-2c0-0.277-0.223-0.5-0.5-0.5zm0.75 1h0.5c0.1385 0 0.25 0.1115 0.25 0.25v0.5c0 0.1385-0.1115 0.25-0.25 0.25h-0.5c-0.1385 0-0.25-0.1115-0.25-0.25v-0.5c0-0.1385 0.1115-0.25 0.25-0.25z" opacity=".8" style="paint-order:normal"/>
  <rect transform="rotate(90)" x="6" y="-2" width="7" height="1" opacity=".25" style="paint-order:normal"/>
  <path d="m12 9.4551a4 4 0 0 1-1 0.4082v3.1367h1z" opacity=".25" style="paint-order:normal"/>
  <path d="M 4.5,0 C 4.223,0 4,0.223 4,0.5 v 2 C 4,2.777 4.223,3 4.5,3 h 2 C 6.777,3 7,2.777 7,2.5 v -2 C 7,0.223 6.777,0 6.5,0 Z m 0.75,1 h 0.5 C 5.8885,1 6,1.1115 6,1.25 v 0.5 C 6,1.8885 5.8885,2 5.75,2 H 5.25 C 5.1115,2 5,1.8885 5,1.75 V 1.25 C 5,1.1115 5.1115,1 5.25,1 Z" opacity=".8" style="paint-order:normal"/>
  <path d="m4.5 9c-0.277 0-0.5 0.223-0.5 0.5v2c0 0.277 0.223 0.5 0.5 0.5h2c0.277 0 0.5-0.223 0.5-0.5v-2c0-0.277-0.223-0.5-0.5-0.5zm0.75 1h0.5c0.1385 0 0.25 0.1115 0.25 0.25v0.5c0 0.1385-0.1115 0.25-0.25 0.25h-0.5c-0.1385 0-0.25-0.1115-0.25-0.25v-0.5c0-0.1385 0.1115-0.25 0.25-0.25z" opacity=".8" style="paint-order:normal"/>
  <rect transform="rotate(90)" x="3" y="-6" width="6" height="1" opacity=".25" style="paint-order:normal"/>
  <rect transform="scale(-1)" x="-13" y="-11" width="6" height="1" opacity=".25" style="paint-order:normal"/>
  <rect transform="scale(-1)" x="-13" y="-2" width="6" height="1" opacity=".25" style="paint-order:normal"/>
 </g>
</svg>

<?xml version="1.0" encoding="UTF-8" standalone="no"?>
<svg
   width="16"
   height="16"
   version="1.1"
   id="svg13"
   sodipodi:docname="object-ungroup-symbolic.svg"
   inkscape:version="1.4.2 (ebf0e940d0, 2025-05-08)"
   xmlns:inkscape="http://www.inkscape.org/namespaces/inkscape"
   xmlns:sodipodi="http://sodipodi.sourceforge.net/DTD/sodipodi-0.dtd"
   xmlns="http://www.w3.org/2000/svg"
   xmlns:svg="http://www.w3.org/2000/svg">
  <defs
     id="defs13">
    <style
       id="current-color-scheme"
       type="text/css">
        .ColorScheme-Text { color:#363636; }
     </style>
  </defs>
  <sodipodi:namedview
     id="namedview13"
     pagecolor="#ffffff"
     bordercolor="#000000"
     borderopacity="0.25"
     inkscape:showpageshadow="2"
     inkscape:pageopacity="0.0"
     inkscape:pagecheckerboard="0"
     inkscape:deskcolor="#d1d1d1"
     inkscape:zoom="49.6875"
     inkscape:cx="8"
     inkscape:cy="8"
     inkscape:window-width="1920"
     inkscape:window-height="1010"
     inkscape:window-x="0"
     inkscape:window-y="0"
     inkscape:window-maximized="1"
     inkscape:current-layer="svg13" />
  <path
     d="M 3,4 V 5 H 6.1328 A 4,4 0 0 1 6.541,4 Z"
     class="ColorScheme-Text"
     style="fill:currentColor;opacity:0.25;paint-order:normal"
     id="path1" />
  <rect
     x="3"
     y="14"
     width="7"
     height="1"
     class="ColorScheme-Text"
     style="fill:currentColor;opacity:0.25;paint-order:normal"
     id="rect1" />
  <rect
     transform="rotate(90)"
     x="3"
     y="-15"
     width="6"
     height="1"
     class="ColorScheme-Text"
     style="fill:currentColor;opacity:0.25;paint-order:normal"
     id="rect2" />
  <path
     id="path2"
     class="ColorScheme-Text"
     style="fill:currentColor;paint-order:normal;opacity:0.8"
     d="M 4.5 0 C 4.223 0 4 0.223 4 0.5 L 4 2.5 C 4 2.777 4.223 3 4.5 3 L 6.5 3 C 6.777 3 7 2.777 7 2.5 L 7 0.5 C 7 0.223 6.777 0 6.5 0 L 4.5 0 z M 13.5 0 C 13.223 0 13 0.223 13 0.5 L 13 2.5 C 13 2.777 13.223 3 13.5 3 L 15.5 3 C 15.777 3 16 2.777 16 2.5 L 16 0.5 C 16 0.223 15.777 0 15.5 0 L 13.5 0 z M 5.25 1 L 5.75 1 C 5.8885 1 6 1.1115 6 1.25 L 6 1.75 C 6 1.8885 5.8885 2 5.75 2 L 5.25 2 C 5.1115 2 5 1.8885 5 1.75 L 5 1.25 C 5 1.1115 5.1115 1 5.25 1 z M 14.25 1 L 14.75 1 C 14.8885 1 15 1.1115 15 1.25 L 15 1.75 C 15 1.8885 14.8885 2 14.75 2 L 14.25 2 C 14.1115 2 14 1.8885 14 1.75 L 14 1.25 C 14 1.1115 14.1115 1 14.25 1 z M 0.5 3 C 0.223 3 0 3.223 0 3.5 L 0 5.5 C 0 5.777 0.223 6 0.5 6 L 2.5 6 C 2.777 6 3 5.777 3 5.5 L 3 3.5 C 3 3.223 2.777 3 2.5 3 L 0.5 3 z M 1.25 4 L 1.75 4 C 1.8885 4 2 4.1115 2 4.25 L 2 4.75 C 2 4.8885 1.8885 5 1.75 5 L 1.25 5 C 1.1115 5 1 4.8885 1 4.75 L 1 4.25 C 1 4.1115 1.1115 4 1.25 4 z M 4.5 9 C 4.223 9 4 9.223 4 9.5 L 4 11.5 C 4 11.777 4.223 12 4.5 12 L 6.5 12 C 6.777 12 7 11.777 7 11.5 L 7 9.5 C 7 9.223 6.777 9 6.5 9 L 4.5 9 z M 13.5 9 C 13.223 9 13 9.223 13 9.5 L 13 11.5 C 13 11.777 13.223 12 13.5 12 L 15.5 12 C 15.777 12 16 11.777 16 11.5 L 16 9.5 C 16 9.223 15.777 9 15.5 9 L 13.5 9 z M 5.25 10 L 5.75 10 C 5.8885 10 6 10.1115 6 10.25 L 6 10.75 C 6 10.8885 5.8885 11 5.75 11 L 5.25 11 C 5.1115 11 5 10.8885 5 10.75 L 5 10.25 C 5 10.1115 5.1115 10 5.25 10 z M 14.25 10 L 14.75 10 C 14.8885 10 15 10.1115 15 10.25 L 15 10.75 C 15 10.8885 14.8885 11 14.75 11 L 14.25 11 C 14.1115 11 14 10.8885 14 10.75 L 14 10.25 C 14 10.1115 14.1115 10 14.25 10 z M 0.5 13 C 0.223 13 0 13.223 0 13.5 L 0 15.5 C 0 15.777 0.223 16 0.5 16 L 2.5 16 C 2.777 16 3 15.777 3 15.5 L 3 13.5 C 3 13.223 2.777 13 2.5 13 L 0.5 13 z M 10.5 13 C 10.223 13 10 13.223 10 13.5 L 10 15.5 C 10 15.777 10.223 16 10.5 16 L 12.5 16 C 12.777 16 13 15.777 13 15.5 L 13 13.5 C 13 13.223 12.777 13 12.5 13 L 10.5 13 z M 1.25 14 L 1.75 14 C 1.8885 14 2 14.1115 2 14.25 L 2 14.75 C 2 14.8885 1.8885 15 1.75 15 L 1.25 15 C 1.1115 15 1 14.8885 1 14.75 L 1 14.25 C 1 14.1115 1.1115 14 1.25 14 z M 11.25 14 L 11.75 14 C 11.8885 14 12 14.1115 12 14.25 L 12 14.75 C 12 14.8885 11.8885 15 11.75 15 L 11.25 15 C 11.1115 15 11 14.8885 11 14.75 L 11 14.25 C 11 14.1115 11.1115 14 11.25 14 z " />
  <path
     id="path6"
     class="ColorScheme-Text"
     style="fill:currentColor;paint-order:normal"
     d="M 10.117188 2.0019531 A 4 4 0 0 0 6 6 L 3.5 6 C 3.223 6 3 6.223 3 6.5 L 3 12.5 C 3 12.777 3.223 13 3.5 13 L 9.5 13 C 9.777 13 10 12.777 10 12.5 L 10 9.9960938 A 4 4 0 0 0 14 6 A 4 4 0 0 0 10.117188 2.0019531 z M 10.085938 3.0019531 A 3 2.9995 0 0 1 13 6 A 3 2.9995 0 0 1 7 6 A 3 2.9995 0 0 1 10.085938 3.0019531 z M 4.25 7 L 6.1308594 7 A 4 4 0 0 0 9 9.8691406 L 9 11.75 C 9 11.8885 8.8885 12 8.75 12 L 4.25 12 C 4.1115 12 4 11.8885 4 11.75 L 4 7.25 C 4 7.1115 4.1115 7 4.25 7 z " />
  <path
     id="path7"
     class="ColorScheme-Text"
     style="fill:currentColor;paint-order:normal;opacity:0.25"
     d="M 9.7949219 3.0078125 A 3 2.9995 0 0 0 7 6 A 3 2.9995 0 0 0 13 6 A 3 2.9995 0 0 0 9.7949219 3.0078125 z " />
  <rect
     transform="rotate(90)"
     x="6"
     y="-2"
     width="7"
     height="1"
     class="ColorScheme-Text"
     style="fill:currentColor;opacity:0.25;paint-order:normal"
     id="rect8" />
  <path
     d="M 12,9.4551 A 4,4 0 0 1 11,9.8633 V 13 h 1 z"
     style="fill:currentColor;opacity:0.25;paint-order:normal"
     class="ColorScheme-Text"
     id="path9" />
  <rect
     transform="rotate(90)"
     x="3"
     y="-6"
     width="6"
     height="1"
     style="fill:currentColor;opacity:0.25;paint-order:normal"
     class="ColorScheme-Text"
     id="rect11" />
  <rect
     transform="scale(-1)"
     x="-13"
     y="-11"
     width="6"
     height="1"
     style="fill:currentColor;opacity:0.25;paint-order:normal"
     class="ColorScheme-Text"
     id="rect12" />
  <rect
     transform="scale(-1)"
     x="-13"
     y="-2"
     width="6"
     height="1"
     style="fill:currentColor;opacity:0.25;paint-order:normal"
     class="ColorScheme-Text"
     id="rect13" />
</svg>
